X: 245
T:The Quaker's Wife
% Nottingham Music Database
S:EF
Y:AB
M:6/8
K:D
P:A
A|"D"def A2f|"G"g2f "A7"e2A|"D"def A2A|"G"B3 "A7"d2A|
"D"def Adf|"G"agf "A7"e2A|"D"def AFA|"G"B3 "D"d2:|
P:B
A|"D"d2f a2f|"G"b2g "A7"a2f|"D"def agf|"D"f3 "D7"a3|"G"b2g "A7"efg|\
"D"a2f "Bm"d2A|"D"def AFA|"G"B3 "D"d2:|


